dapp/src/images/staking-icon.svg

<svg fill="none" height="25" viewBox="0 0 25 25" width="25" xmlns="http://www.w3.org/2000/svg" xmlns:xlink="http://www.w3.org/1999/xlink"><linearGradient id="a"><stop offset="0" stop-color="#ffdfbd"/><stop offset="1" stop-color="#d0a7a8"/></linearGradient><linearGradient id="b" gradientUnits="userSpaceOnUse" x1="2.47217" x2="3.3548" xlink:href="#a" y1="22.7246" y2="2.76364"/><linearGradient id="c" gradientUnits="userSpaceOnUse" x1="8.47217" x2="16.4323" xlink:href="#a" y1="9.72461" y2="10.2878"/><g clip-rule="evenodd" fill-rule="evenodd"><path d="m4.47217 12.7246c0 2.7817 1.41886 5.2324 3.57698 6.6673.45991.3058.58484.9265.27906 1.3864-.30579.4599-.9265.5848-1.38641.279-2.69196-1.7898-4.46963-4.8534-4.46963-8.3327 0-5.52284 4.47715-9.99999 10.00003-9.99999 5.5228 0 10 4.47715 10 9.99999 0 5.5229-4.4772 10-10 10-.2652 0-.5196-.1053-.7071-.2929-.1876-.1875-.2929-.4419-.2929-.7071v-11c0-.5523.4477-.99999 1-.99999s1 .44769 1 .99999v9.9381c3.9463-.4921 7-3.8585 7-7.9381 0-4.41827-3.5818-7.99999-8-7.99999-4.41831 0-8.00003 3.58172-8.00003 7.99999z" fill="url(#b)"/><path d="m11.7651 10.0175c.3905-.39052 1.0237-.39052 1.4142 0l3 3c.3905.3905.3905 1.0237 0 1.4142s-1.0237.3905-1.4142 0l-2.2929-2.2929-2.2929 2.2929c-.39055.3905-1.02371.3905-1.41424 0-.39052-.3905-.39052-1.0237 0-1.4142z" fill="url(#c)"/></g></svg>

<svg width="25" height="25" viewBox="0 0 25 25" fill="none" xmlns="http://www.w3.org/2000/svg">
<path fill-rule="evenodd" clip-rule="evenodd" d="M4.47217 12.7246C4.47217 15.5063 5.89103 17.957 8.04915 19.3919C8.50906 19.6977 8.63399 20.3184 8.32821 20.7783C8.02242 21.2382 7.40171 21.3631 6.9418 21.0573C4.24984 19.2675 2.47217 16.2039 2.47217 12.7246C2.47217 7.20176 6.94932 2.72461 12.4722 2.72461C17.995 2.72461 22.4722 7.20176 22.4722 12.7246C22.4722 18.2475 17.995 22.7246 12.4722 22.7246C12.207 22.7246 11.9526 22.6193 11.7651 22.4317C11.5775 22.2442 11.4722 21.9898 11.4722 21.7246L11.4722 10.7246C11.4722 10.1723 11.9199 9.72461 12.4722 9.72461C13.0245 9.72461 13.4722 10.1723 13.4722 10.7246L13.4722 20.6627C17.4185 20.1706 20.4722 16.8042 20.4722 12.7246C20.4722 8.30633 16.8904 4.72461 12.4722 4.72461C8.05389 4.72461 4.47217 8.30633 4.47217 12.7246Z" fill="url(#paint0_linear_1972_2235)"/>
<path fill-rule="evenodd" clip-rule="evenodd" d="M11.7651 10.0175C12.1556 9.62698 12.7888 9.62698 13.1793 10.0175L16.1793 13.0175C16.5698 13.408 16.5698 14.0412 16.1793 14.4317C15.7888 14.8222 15.1556 14.8222 14.7651 14.4317L12.4722 12.1388L10.1793 14.4317C9.78875 14.8222 9.15559 14.8222 8.76506 14.4317C8.37454 14.0412 8.37454 13.408 8.76506 13.0175L11.7651 10.0175Z" fill="url(#paint1_linear_1972_2235)"/>
<defs>
<linearGradient id="paint0_linear_1972_2235" x1="2.47217" y1="22.7246" x2="3.3548" y2="2.76364" gradientUnits="userSpaceOnUse">
<stop stop-color="#FFDFBD"/>
<stop offset="1" stop-color="#D0A7A8"/>
</linearGradient>
<linearGradient id="paint1_linear_1972_2235" x1="8.47217" y1="9.72461" x2="16.4323" y2="10.2878" gradientUnits="userSpaceOnUse">
<stop stop-color="#FFDFBD"/>
<stop offset="1" stop-color="#D0A7A8"/>
</linearGradient>
</defs>
</svg>
